polaris-icons/icons/new-icons/FulfillmentFulfilledMajor.svg

<svg width="20" height="20" viewBox="0 0 20 20" fill="none" xmlns="http://www.w3.org/2000/svg">
<path fill-rule="evenodd" clip-rule="evenodd" d="M5 8V14.75C5 14.8881 5.11193 15 5.25 15H9.25C9.66421 15 10 15.3358 10 15.75C10 16.1642 9.66421 16.5 9.25 16.5H5.25C4.2835 16.5 3.5 15.7165 3.5 14.75V7.88657C3.5 7.31712 3.67678 6.76171 4.00593 6.29703L5.31463 4.44946C5.73645 3.85394 6.4209 3.5 7.15068 3.5H12.9472C13.6995 3.5 14.402 3.87598 14.8193 4.50192L16.0381 6.33013C16.3393 6.78186 16.5 7.31263 16.5 7.85555V11.5C16.5 11.9142 16.1642 12.25 15.75 12.25C15.3358 12.25 15 11.9142 15 11.5V8H5ZM6.53866 5.31649C6.67927 5.11798 6.90742 5 7.15068 5H9.25V6.5H5.70034L6.53866 5.31649ZM14.3486 6.5L13.5713 5.33397C13.4322 5.12533 13.198 5 12.9472 5H10.75V6.5H14.3486Z" fill="#4A4A4A"/>
<path fill-rule="evenodd" clip-rule="evenodd" d="M6 10C6 9.44771 6.44772 9 7 9H11C11.5523 9 12 9.44772 12 10V13C12 13.5523 11.5523 14 11 14H7C6.44771 14 6 13.5523 6 13V10ZM7.5 10.5V12.5H10.5V10.5H7.5Z" fill="#4A4A4A"/>
<path d="M17.7803 13.2197C18.0732 13.5126 18.0732 13.9874 17.7803 14.2803L14.2803 17.7803C13.9874 18.0732 13.5126 18.0732 13.2197 17.7803L11.4697 16.0303C11.1768 15.7374 11.1768 15.2626 11.4697 14.9697C11.7626 14.6768 12.2374 14.6768 12.5303 14.9697L13.75 16.1893L16.7197 13.2197C17.0126 12.9268 17.4874 12.9268 17.7803 13.2197Z" fill="#4A4A4A"/>
</svg>

<svg viewBox="0 0 20 20" xmlns="http://www.w3.org/2000/svg"><path fill-rule="evenodd" d="M5 8v6.75c0 .138.112.25.25.25h4a.75.75 0 0 1 0 1.5h-4a1.75 1.75 0 0 1-1.75-1.75v-6.863c0-.57.177-1.125.506-1.59l1.309-1.848a2.25 2.25 0 0 1 1.836-.949h5.796a2.25 2.25 0 0 1 1.872 1.002l1.22 1.828c.3.452.461.983.461 1.526v3.644a.75.75 0 0 1-1.5 0v-3.5h-10Zm1.539-2.684a.75.75 0 0 1 .612-.316h2.099v1.5h-3.55l.839-1.184Zm7.81 1.184-.778-1.166a.75.75 0 0 0-.624-.334h-2.197v1.5h3.599Z" fill="#5C5F62"/><path fill-rule="evenodd" d="M6 10a1 1 0 0 1 1-1h4a1 1 0 0 1 1 1v3a1 1 0 0 1-1 1h-4a1 1 0 0 1-1-1v-3Zm1.5.5v2h3v-2h-3Z" fill="#5C5F62"/><path d="M17.78 13.22a.75.75 0 0 1 0 1.06l-3.5 3.5a.75.75 0 0 1-1.06 0l-1.75-1.75a.75.75 0 1 1 1.06-1.06l1.22 1.22 2.97-2.97a.75.75 0 0 1 1.06 0Z" fill="#5C5F62"/></svg>
